X:11970
T:no name
R:reel
Z:id:hn-reel-278
M:C|
K:Ddor
A,DDE FEDB,|C2EG ~c3B|cAGE CDEG|AcGE CDEC|
A,DDE FEDB,|C2EC A,B,CA,|~_B,3C DEFG|1 (3ABc GE EDDC:|2 (3ABc GE EDD2||
|:Addc dfed|dcAB cAGE|~F3E FAcd|efed cAGc|
Addc dfed|dcAB cAGc|dfed dcAB|1 cAGE D4:|2 cAGE D2 (3EFG||
|:Addc defg|ad~d2 c'dbd|adde cdef|gc~c2 AcGc|
Addc dfed|dcAB cAGc|dfed dcAB|1 cAGE D2 (3EFG:|2 cAGE D2DC||
